X:1
T:Title
%%score { 1 | 2 }
L:1/8
Q:1/4=90
M:6/8
K:F
V:1 treble nm="Grand Piano"
V:2 bass 
V:1
 A2 A AGF | [DF]2 D C2 C | FFd c2 A | [EG]3- [EG]2 [EG] | [^CEA]2 [CEA] [A,DF][A,DF][A,DF] | %5
w: Bertha~J.~Hyatt * * * *|||||
 [=B,DG]2 [B,DG] [G,CE]2 [G,CE] | [A,CD][A,^CE][A,DF][K:bass] [G,=B,E]2 [F,B,D] | [E,C]6 | %8
w: |||
 [Ed]2 [EG] [EG][FA][EB] | B2 A A2 c | ccA [=B,FG]2 [B,DF] | [EG]3- [EG]2 [EG] | A2 A ABc | %13
w: |||||
 c2 B B2 [^CG] | FFE [EA]2 [EG] | [CF]6 |] %16
w: |||
V:2
 [F,CF]2 [F,CF] [F,CF][F,B,C][F,A,C] | [B,,B,]2 [D,F,B,] [F,A,]2 [F,A,] | %2
 [F,A,C][F,A,C][F,B,F] [F,A,F]2 [F,CF] | [C,C]3- [C,C]2 [C,C] | A,,2 A,, D,D,D, | G,,2 G,, C,2 C, | %6
 F,E,D, G,,2 G,, | C,6 | [C,B,]2 [C,B,] [C,B,][C,A,][C,G,] | [F,DF]2 [F,CF] [F,CF]2 [F,A,F] | %10
 [F,A,F][F,A,F][F,CF] D,2 G,, | [C,C]3- [C,C]2 [C,C] | [F,CF]2 [F,CF] [^F,C_E][F,CE][F,A,E] | %13
 [G,D]2 [G,D] [G,D]2 [B,,B,] | [C,A,C][C,A,C][C,G,C] [C,C]2 [C,B,] | [F,A,]6 |] %16

